X:115
T:Temperance Reel
M:4/4
K:D
L:1/8
(dc) | "Em" B2 E2 B2 (Bc) | B2 (Bc) dBAG | "D" F2 D2 A2 (AG) | F (A2 B) A2 (dc) |
"Em" B2 E2 B2 (Bc) | B2 (Bc) dBAG | "D" ABde fgfe | dB AF "Em" E2 :|
|: B2 | "Em" B (e2 d) e2 (ed) | Beef gfed | "G" B (d2 B) d2 (dB) | "D" ABde fedB |
"Em" B (e2 d) e2 (ed) | Beef "G" gfed | "(Em)" B2 (Bc) dcdB | "D" AFDF "Em" E2 :|

